art/controllers/pico8.svg

<svg height="66" width="66" xmlns="http://www.w3.org/2000/svg"><g fill="#f4f4f4" fill-rule="evenodd"><path d="m29.75 17.75v6.5h6.5v-.25-6.25zm.5.5h5.5v5.5h-5.5z"/><path d="m23.75 23.75v6.5h6.5v-.25-6.25zm.5.5h5.5v5.5h-5.5z"/><path d="m35.75 23.75v6.5h6.5v-.25-6.25zm.5.5h5.5v5.5h-5.5z"/><path d="m17.75 29.75v6.5h6.5v-.25-6.25zm.5.5h5.5v5.5h-5.5z"/><path d="m41.75 29.75v6.5h6.5v-.25-6.25zm.5.5h5.5v5.5h-5.5z"/><path d="m23.75 35.75v6.5h6.5v-.25-6.25zm.5.5h5.5v5.5h-5.5z"/><path d="m35.75 35.75v6.5h6.5v-.25-6.25zm.5.5h5.5v5.5h-5.5z"/><path d="m29.75 41.75v6.5h6.5v-.25-6.25zm.5.5h5.5v5.5h-5.5z"/></g></svg>

<?xml version="1.0" encoding="UTF-8" standalone="no"?>
<svg
   height="66px"
   version="1.1"
   width="66px"
   id="svg22"
   sodipodi:docname="controller.svg"
   inkscape:version="1.1 (c68e22c387, 2021-05-23)"
   xmlns:inkscape="http://www.inkscape.org/namespaces/inkscape"
   xmlns:sodipodi="http://sodipodi.sourceforge.net/DTD/sodipodi-0.dtd"
   xmlns="http://www.w3.org/2000/svg"
   xmlns:svg="http://www.w3.org/2000/svg">
  <sodipodi:namedview
     id="namedview24"
     pagecolor="#ffffff"
     bordercolor="#666666"
     borderopacity="1.0"
     inkscape:pageshadow="2"
     inkscape:pageopacity="0.0"
     inkscape:pagecheckerboard="0"
     showgrid="false"
     inkscape:zoom="7.2121212"
     inkscape:cx="32.930672"
     inkscape:cy="21.976891"
     inkscape:window-width="1280"
     inkscape:window-height="659"
     inkscape:window-x="-7"
     inkscape:window-y="-7"
     inkscape:window-maximized="1"
     inkscape:current-layer="svg22" />
  <defs
     id="defs2" />
  <path
     style="color:#000000;fill:#f4f4f4;fill-rule:evenodd;-inkscape-stroke:none"
     d="m 29.75,17.75 v 6.5 h 6.5 V 24 17.75 Z m 0.5,0.5 h 5.5 v 5.5 h -5.5 z"
     id="path4" />
  <path
     style="color:#000000;fill:#f4f4f4;fill-rule:evenodd;-inkscape-stroke:none"
     d="m 23.75,23.75 v 6.5 h 6.5 V 30 23.75 Z m 0.5,0.5 h 5.5 v 5.5 h -5.5 z"
     id="path6" />
  <path
     style="color:#000000;fill:#f4f4f4;fill-rule:evenodd;-inkscape-stroke:none"
     d="m 35.75,23.75 v 6.5 h 6.5 V 30 23.75 Z m 0.5,0.5 h 5.5 v 5.5 h -5.5 z"
     id="path10" />
  <path
     style="color:#000000;fill:#f4f4f4;fill-rule:evenodd;-inkscape-stroke:none"
     d="m 17.75,29.75 v 6.5 h 6.5 V 36 29.75 Z m 0.5,0.5 h 5.5 v 5.5 h -5.5 z"
     id="path12" />
  <path
     style="color:#000000;fill:#f4f4f4;fill-rule:evenodd;-inkscape-stroke:none"
     d="m 41.75,29.75 v 6.5 h 6.5 V 36 29.75 Z m 0.5,0.5 h 5.5 v 5.5 h -5.5 z"
     id="path14" />
  <path
     style="color:#000000;fill:#f4f4f4;fill-rule:evenodd;-inkscape-stroke:none"
     d="m 23.75,35.75 v 6.5 h 6.5 V 42 35.75 Z m 0.5,0.5 h 5.5 v 5.5 h -5.5 z"
     id="path16" />
  <path
     style="color:#000000;fill:#f4f4f4;fill-rule:evenodd;-inkscape-stroke:none"
     d="m 35.75,35.75 v 6.5 h 6.5 V 42 35.75 Z m 0.5,0.5 h 5.5 v 5.5 h -5.5 z"
     id="path18" />
  <path
     style="color:#000000;fill:#f4f4f4;fill-rule:evenodd;-inkscape-stroke:none"
     d="m 29.75,41.75 v 6.5 h 6.5 V 48 41.75 Z m 0.5,0.5 h 5.5 v 5.5 h -5.5 z"
     id="path20" />
</svg>
